<jittershader name="default">
	<description>Default Slab </description>

	<param name="iResolution" type="vec2" state="VIEWPORT"/>
	<param name="iTime" type="float" default="0.0" />

	<param name="buff_A" type="int" default="0" />	
	<param name="buff_B" type="int" default="1" />	

	<param name="modelViewProjectionMatrix" type="mat4" state="MODELVIEW_PROJECTION_MATRIX" />
	<param name="textureMatrix0" type="mat4" state="TEXTURE0_MATRIX" />
	<param name="position" type="vec3" state="POSITION" />
	<param name="texcoord" type="vec2" state="TEXCOORD" />

	<language name="glsl" version="1.5">

		<bind param="iResolution" program="fp" />
		<bind param="iTime" program="fp" />

		<bind param="buff_A" program="fp" />
		<bind param="buff_B" program="fp" />
		

		<bind param="modelViewProjectionMatrix" program="vp" />
		<bind param="textureMatrix0" program="vp" />
		<bind param="position" program="vp" />
		<bind param="texcoord" program="vp" />

		<program name="vp" type="vertex"  >
		<![CDATA[
			#version 330 core
			
			in vec3 position;
			in vec2 texcoord;
			out jit_PerVertex {
				vec2 texcoord;
			} jit_out;
			uniform mat4 modelViewProjectionMatrix;
			uniform mat4 textureMatrix0;
			
			void main(void) {
				gl_Position = modelViewProjectionMatrix*vec4(position, 1.);
				jit_out.texcoord = vec2(textureMatrix0*vec4(texcoord, 0., 1.));
			}
		]]>
		</program>
		
		<program name="fp" type="fragment"  >
		<![CDATA[
			#version 330 core
			
			in jit_PerVertex {
				vec2 texcoord;
			} jit_in;
			layout (location = 0) out vec4 fragColor;
			

		uniform vec2 iResolution;
		uniform float iTime;
		
		uniform sampler2D buff_A;
		uniform sampler2D buff_B;

		
		
		// Minimal Temporal Anti Aliasing
		// https://www.elopezr.com/temporal-aa-and-the-quest-for-the-holy-trail/

		void main()
		{
		    vec2 fragCoord = jit_in.texcoord * iResolution;
		    vec2 uv = fragCoord.xy / iResolution.xy;
		    vec3 color = texture(buff_A, uv).rgb;
		    vec3 temporal = texture(buff_B, uv).rgb;
		    vec3 minColor = vec3(9999.), maxColor = vec3(-9999.);
		    for(int x = -1; x <= 1; ++x){
		        for(int y = -1; y <= 1; ++y){
		            vec3 c = texture(buff_A, uv + vec2(x, y) / iResolution.xy).rgb;
		            minColor = min(minColor, c);
		            maxColor = max(maxColor, c);
		        }
		    }
		    temporal = clamp(temporal, minColor, maxColor);
		    fragColor.rgb = mix(color, temporal, 0.9);
		    fragColor.a = 1.0;
		}
		]]>
		</program>
	</language>
</jittershader>
